dist/img/icons/meditation/2.svg

<svg width="60" height="59" viewBox="0 0 60 59" fill="none" xmlns="http://www.w3.org/2000/svg">
<path fill-rule="evenodd" clip-rule="evenodd" d="M27.3734 0.407567C24.7596 1.43099 22.9113 3.69145 22.3512 6.54952C21.59 10.4353 23.9731 15.6802 27.4862 17.8507C28.8685 18.7046 30.758 18.758 32.2446 17.9849C34.2948 16.9189 36.1057 14.4505 37.0794 11.3947C37.8458 8.99004 37.7922 6.39285 36.9395 4.59271C36.1913 3.0135 34.6501 1.43075 33.1604 0.711687C31.4661 -0.106153 29.0142 -0.234938 27.3734 0.407567ZM32.6357 2.56618C34.1334 3.35519 34.8812 4.234 35.4844 5.91411C36.2626 8.08217 35.57 11.7394 33.9629 13.9462C31.0122 17.9979 27.4655 17.3693 25.0602 12.3685C24.1311 10.4367 24.0834 10.2375 24.0803 8.27972C24.078 6.77117 24.1811 6.01761 24.4667 5.45686C26.1603 2.13139 29.54 0.935464 32.6357 2.56618ZM28.829 19.8906C27.6442 21.0483 27.5852 24.0174 28.6775 27.5289L29.1309 28.9864L28.4083 30.3645C27.6413 31.8272 26.2724 33.7509 25.9987 33.7509C25.9084 33.7509 25.7201 32.5429 25.5802 31.0663C25.3146 28.264 24.418 25.2244 23.4903 23.9813C21.9219 21.8791 19.188 23.2381 16.6892 27.362C14.0105 31.7825 12.3092 37.9474 12.9435 40.935C13.4781 43.4532 14.7939 44.2789 17.1308 43.5626C18.8646 43.0312 19.7988 42.5116 21.5916 41.0812C22.4092 40.4286 23.1234 39.8948 23.1785 39.8948C23.6533 39.8948 22.0322 45.2357 20.9225 47.3279C19.6617 49.7044 19.7515 49.7022 17.4957 47.4096C16.4135 46.3099 14.8261 44.9753 13.9679 44.4436C7.89732 40.6838 0.407011 42.1075 0.0147545 47.0961C-0.313396 51.2673 4.88143 55.2385 10.6823 55.2508C13.3907 55.2567 16.7769 54.2385 18.5992 52.8708L19.2775 52.3616L20.8857 54.04C22.9701 56.2154 23.7075 56.7868 25.7443 57.8057C27.1697 58.5186 27.724 58.6626 29.3885 58.7516C32.8607 58.9378 35.6287 57.6013 38.9425 54.1386L40.5974 52.4095L41.6551 53.1253C44.3267 54.9325 48.5949 55.6816 51.9394 54.9304C54.4519 54.3659 57.0968 52.9171 58.3319 51.4287C59.9731 49.4508 60.4093 47.4956 59.6138 45.6842C59.0794 44.467 58.1904 43.5995 56.7886 42.9268C55.8268 42.465 55.3023 42.3896 53.0902 42.3946C50.8844 42.3998 50.2633 42.492 48.7855 43.0329C46.5283 43.8592 44.3525 45.3514 42.1817 47.5618C41.216 48.5453 40.3251 49.3093 40.2018 49.2594C39.4542 48.9579 37.2043 43.4041 36.6136 40.4028L36.4578 39.6112L38.1058 40.909C41.7849 43.8067 44.4558 44.5596 45.8971 43.1049C46.8869 42.1058 47.1145 41.133 46.9732 38.5011C46.6581 32.6245 42.376 24.2636 39.0972 23.123C38.1439 22.7912 37.3015 23.0488 36.5385 23.9049C35.4398 25.138 34.2664 29.1969 34.2585 31.7915C34.2529 33.6441 34.018 33.706 32.8186 32.1701C32.2316 31.4184 31.5528 30.3935 31.3105 29.8931L30.8701 28.9826L31.4453 26.4468C32.2876 22.7331 32.1498 20.795 30.9739 19.8198C30.2095 19.1862 29.527 19.2087 28.829 19.8906ZM30.2239 23.0722C30.2199 24.8936 29.9238 25.7122 29.6985 24.5248C29.5131 23.5476 29.5129 21.5861 29.698 21.3909C30.0455 21.0247 30.227 21.605 30.2239 23.0722ZM22.3581 25.4447C22.6081 25.815 23.0689 27.0496 23.382 28.1886C23.8608 29.9306 23.9511 30.744 23.9511 33.3149V36.3706L22.8864 37.5714C20.8938 39.8189 17.4668 42.0144 15.9431 42.0191C14.7531 42.0229 14.4525 41.2719 14.5939 38.6471C14.8826 33.2915 19.1259 24.8008 21.5263 24.7755C21.7337 24.7733 22.108 25.0744 22.3581 25.4447ZM39.344 25.2304C41.5247 26.6323 44.6616 33.3558 45.2634 37.9186C45.6232 40.6448 45.1944 42.0215 43.9858 42.0215C42.5571 42.0215 39.3753 40.0732 37.2623 37.9044C35.8276 36.432 35.6722 35.6628 36.0015 31.6639C36.2465 28.6886 36.9095 26.1786 37.6815 25.3031C38.253 24.6552 38.4366 24.6472 39.344 25.2304ZM30.771 32.6455C31.2065 33.3374 32.0742 34.4655 32.6991 35.1527C34.2561 36.8647 34.4031 37.1586 34.7151 39.1859C35.2961 42.9631 36.9348 47.5741 38.5258 49.9099C39.3969 51.1886 39.3491 51.3122 37.1523 53.4564C32.0262 58.4596 26.287 57.9773 21.5496 52.1451L20.6053 50.9825L21.3255 49.9834C22.8197 47.9111 24.4346 43.435 25.2693 39.0528C25.6638 36.9814 25.669 36.9717 27.6711 34.4111C28.4226 33.4501 29.2159 32.3768 29.434 32.0259C29.6521 31.675 29.8639 31.3879 29.9049 31.3879C29.9457 31.3879 30.3355 31.9538 30.771 32.6455ZM10.9834 44.8382C11.6793 45.117 12.8897 45.7818 13.6731 46.3151C15.3919 47.4855 18.1233 50.2223 18.1233 50.7741C18.1233 51.3148 15.868 52.5527 14.0678 53.0001C11.2638 53.6969 7.49878 53.321 5.2349 52.1179C1.07631 49.9085 0.387958 45.873 3.93127 44.4745C5.22123 43.9655 9.33499 44.1775 10.9834 44.8382ZM56.3374 44.7475C57.3848 45.2914 58.2456 46.5334 58.2456 47.5008C58.2456 49.733 55.7042 52.044 52.1777 53.0185C50.2962 53.5384 46.5967 53.3791 44.773 52.6995C43.5086 52.2283 41.6587 51.1257 41.6587 50.8431C41.6587 50.4603 42.8725 49.0843 44.2712 47.8813C46.1309 46.2815 48.5017 44.8795 50.0436 44.4677C51.7413 44.014 55.2236 44.1688 56.3374 44.7475Z" fill="#646B5C"/>
</svg>

<svg width="60" height="59" viewBox="0 0 60 59" fill="none" xmlns="http://www.w3.org/2000/svg"><path fill-rule="evenodd" clip-rule="evenodd" d="M27.373.408C24.76 1.43 22.911 3.69 22.351 6.55c-.761 3.885 1.622 9.13 5.135 11.3 1.383.855 3.272.908 4.759.135 2.05-1.066 3.86-3.534 4.834-6.59.767-2.405.713-5.002-.14-6.802-.748-1.58-2.289-3.162-3.779-3.881-1.694-.818-4.146-.947-5.787-.304zm5.263 2.158c1.497.79 2.245 1.668 2.848 3.348.779 2.168.086 5.825-1.521 8.032-2.95 4.052-6.498 3.423-8.903-1.578-.929-1.931-.977-2.13-.98-4.088-.002-1.509.101-2.262.387-2.823C26.16 2.13 29.54.935 32.636 2.567zm-3.807 17.325c-1.185 1.157-1.244 4.126-.152 7.638l.454 1.457-.723 1.378c-.767 1.463-2.136 3.387-2.41 3.387-.09 0-.278-1.208-.418-2.685-.265-2.802-1.162-5.842-2.09-7.085-1.568-2.102-4.302-.743-6.8 3.381-2.68 4.42-4.38 10.585-3.747 13.573.535 2.518 1.85 3.344 4.188 2.628 1.734-.532 2.668-1.051 4.46-2.482.818-.652 1.532-1.186 1.587-1.186.475 0-1.146 5.34-2.256 7.433-1.26 2.376-1.17 2.374-3.426.082-1.082-1.1-2.67-2.435-3.528-2.966C7.898 40.684.407 42.107.015 47.096c-.328 4.171 4.866 8.143 10.667 8.155 2.709.006 6.095-1.012 7.917-2.38l.678-.51 1.609 1.679c2.084 2.175 2.822 2.747 4.858 3.766 1.426.713 1.98.857 3.645.946 3.472.186 6.24-1.15 9.554-4.613l1.654-1.73 1.058.716c2.672 1.807 6.94 2.557 10.284 1.805 2.513-.564 5.158-2.013 6.393-3.501 1.641-1.978 2.077-3.933 1.282-5.745-.535-1.217-1.424-2.084-2.825-2.757-.962-.462-1.487-.537-3.699-.532-2.206.005-2.827.097-4.305.638-2.257.826-4.432 2.318-6.603 4.529-.966.983-1.857 1.747-1.98 1.697-.748-.301-2.998-5.855-3.588-8.856l-.156-.792 1.648 1.298c3.679 2.898 6.35 3.65 7.791 2.196.99-1 1.218-1.972 1.076-4.604-.315-5.877-4.597-14.237-7.876-15.378-.953-.332-1.796-.074-2.559.782-1.098 1.233-2.272 5.292-2.28 7.886-.005 1.853-.24 1.915-1.44.38-.586-.753-1.265-1.777-1.507-2.278l-.44-.91.574-2.536c.843-3.714.705-5.652-.471-6.627-.765-.634-1.447-.611-2.145.07zm1.395 3.181c-.004 1.822-.3 2.64-.526 1.453-.185-.977-.185-2.939 0-3.134.348-.366.529.214.526 1.681zm-7.866 2.373c.25.37.71 1.605 1.024 2.744.479 1.742.57 2.555.57 5.126v3.056l-1.066 1.2c-1.992 2.248-5.42 4.443-6.943 4.448-1.19.004-1.49-.747-1.35-3.372.29-5.355 4.533-13.846 6.933-13.871.208-.003.582.298.832.669zm16.986-.215c2.18 1.402 5.318 8.126 5.92 12.689.36 2.726-.07 4.103-1.278 4.103-1.429 0-4.61-1.949-6.724-4.118-1.434-1.472-1.59-2.241-1.26-6.24.244-2.975.907-5.485 1.68-6.36.571-.649.755-.657 1.662-.074zm-8.573 7.415c.435.692 1.303 1.82 1.928 2.508 1.557 1.712 1.704 2.006 2.016 4.033.581 3.777 2.22 8.388 3.81 10.724.872 1.279.824 1.402-1.373 3.546-5.126 5.004-10.865 4.521-15.602-1.31l-.945-1.163.72-1c1.495-2.072 3.11-6.548 3.944-10.93.395-2.072.4-2.081 2.402-4.642.752-.96 1.545-2.034 1.763-2.385.218-.351.43-.638.47-.638.042 0 .431.566.867 1.257zM10.983 44.838c.696.279 1.907.944 2.69 1.477 1.719 1.17 4.45 3.907 4.45 4.46 0 .54-2.255 1.778-4.055 2.225-2.804.697-6.57.321-8.833-.882-4.159-2.21-4.847-6.245-1.304-7.644 1.29-.508 5.404-.296 7.052.364zm45.354-.09c1.048.543 1.909 1.785 1.909 2.753 0 2.232-2.542 4.543-6.068 5.518-1.882.52-5.581.36-7.405-.32-1.264-.47-3.114-1.573-3.114-1.856 0-.383 1.214-1.759 2.612-2.962 1.86-1.6 4.23-3.002 5.773-3.413 1.697-.454 5.18-.3 6.293.28z" fill="#646B5C"/></svg>
